libs/islamic-website/markets-page/src/assets/images/coin-logos/usdc.svg

<svg fill="none" height="40" viewBox="0 0 40 40" width="40" xmlns="http://www.w3.org/2000/svg"><rect fill="#2775ca" height="38" rx="19" width="38" x="1" y="1"/><rect height="38" rx="19" stroke="#181e25" stroke-width="2" width="38" x="1" y="1"/><g fill="#fff"><path d="m24.6566 22.4732c0-2.4732-1.484-3.3212-4.4519-3.6745-2.12-.2827-2.544-.8479-2.544-1.8374 0-.9894.7067-1.6252 2.12-1.6252 1.2719 0 1.9787.424 2.3319 1.484.0707.212.2827.3532.4947.3532h1.1306c.2827 0 .4947-.212.4947-.4945v-.0707c-.2827-1.5547-1.5547-2.756-3.18-2.8972v-1.696c0-.2827-.212-.4947-.5652-.5654h-1.06c-.2827 0-.4947.212-.5654.5654v1.6252c-2.12.2828-3.4625 1.696-3.4625 3.4627 0 2.3319 1.4132 3.2505 4.3812 3.6039 1.9787.3533 2.6146.7773 2.6146 1.908s-.9894 1.9079-2.3319 1.9079c-1.8374 0-2.4734-.7774-2.6854-1.8374-.0705-.2825-.2825-.424-.4945-.424h-1.2015c-.2825 0-.4945.212-.4945.4947v.0707c.2825 1.7666 1.4132 3.0385 3.7452 3.392v1.6959c0 .2826.212.4946.5653.5653h1.0599c.2827 0 .4947-.212.5655-.5653v-1.6959c2.1199-.3535 3.5332-1.8374 3.5332-3.7454z"/><path clip-rule="evenodd" d="m10.1033 16.3253c-2.04935 5.4413.7773 11.5891 6.2892 13.5677.212.1414.424.4239.424.6359v.9895c0 .1412 0 .212-.0707.2825-.0706.2827-.3533.424-.636.2827-3.9572-1.2719-6.99588-4.3106-8.26785-8.2678-2.11995-6.7131 1.55469-13.85039 8.26785-15.97035.0707-.07055.212-.07055.2827-.07055.2827.07055.424.28255.424.56527v.98925c0 .35344-.1413.56543-.424.70668-2.8972 1.06-5.2292 3.3212-6.2892 6.2892zm13.1437-8.19713c.0706-.28272.3533-.42399.636-.28272 3.8865 1.27198 6.9959 4.31065 8.2678 8.33855 2.12 6.7131-1.5546 13.8504-8.2678 15.9704-.0707.0705-.212.0705-.2827.0705-.2827-.0705-.424-.2825-.424-.5653v-.9892c0-.3535.1413-.5654.424-.7067 2.8972-1.06 5.2292-3.3212 6.2892-6.2892 2.0494-5.4413-.7773-11.5891-6.2892-13.5677-.212-.14139-.424-.42394-.424-.70666v-.98925c0-.14145 0-.212.0707-.28272z" fill-rule="evenodd"/></g></svg>

<svg width="40" height="40" viewBox="0 0 40 40" fill="none" xmlns="http://www.w3.org/2000/svg">
<rect x="1" y="1" width="38" height="38" rx="19" fill="#2775CA"/>
<rect x="1" y="1" width="38" height="38" rx="19" stroke="#181E25" stroke-width="2"/>
<path d="M24.6566 22.4732C24.6566 20 23.1726 19.152 20.2047 18.7987C18.0847 18.516 17.6607 17.9508 17.6607 16.9613C17.6607 15.9719 18.3674 15.3361 19.7807 15.3361C21.0526 15.3361 21.7594 15.7601 22.1126 16.8201C22.1833 17.0321 22.3953 17.1733 22.6073 17.1733H23.7379C24.0206 17.1733 24.2326 16.9613 24.2326 16.6788V16.6081C23.9499 15.0534 22.6779 13.8521 21.0526 13.7109V12.0149C21.0526 11.7322 20.8406 11.5202 20.4874 11.4495H19.4274C19.1447 11.4495 18.9327 11.6615 18.862 12.0149V13.6401C16.742 13.9229 15.3995 15.3361 15.3995 17.1028C15.3995 19.4347 16.8127 20.3533 19.7807 20.7067C21.7594 21.06 22.3953 21.484 22.3953 22.6147C22.3953 23.7454 21.4059 24.5226 20.0634 24.5226C18.226 24.5226 17.59 23.7452 17.378 22.6852C17.3075 22.4027 17.0955 22.2612 16.8835 22.2612H15.682C15.3995 22.2612 15.1875 22.4732 15.1875 22.7559V22.8266C15.47 24.5932 16.6007 25.8651 18.9327 26.2186V27.9145C18.9327 28.1971 19.1447 28.4091 19.498 28.4798H20.5579C20.8406 28.4798 21.0526 28.2678 21.1234 27.9145V26.2186C23.2433 25.8651 24.6566 24.3812 24.6566 22.4732Z" fill="white"/>
<path fill-rule="evenodd" clip-rule="evenodd" d="M10.1033 16.3253C8.05395 21.7666 10.8806 27.9144 16.3925 29.893C16.6045 30.0344 16.8165 30.3169 16.8165 30.5289V31.5184C16.8165 31.6596 16.8165 31.7304 16.7458 31.8009C16.6752 32.0836 16.3925 32.2249 16.1098 32.0836C12.1526 30.8117 9.11392 27.773 7.84195 23.8158C5.722 17.1027 9.39664 9.96541 16.1098 7.84545C16.1805 7.7749 16.3218 7.7749 16.3925 7.7749C16.6752 7.84545 16.8165 8.05745 16.8165 8.34017V9.32942C16.8165 9.68286 16.6752 9.89485 16.3925 10.0361C13.4953 11.0961 11.1633 13.3573 10.1033 16.3253ZM23.247 8.12817C23.3176 7.84545 23.6003 7.70418 23.883 7.84545C27.7695 9.11743 30.8789 12.1561 32.1508 16.184C34.2708 22.8971 30.5962 30.0344 23.883 32.1544C23.8123 32.2249 23.671 32.2249 23.6003 32.2249C23.3176 32.1544 23.1763 31.9424 23.1763 31.6596V30.6704C23.1763 30.3169 23.3176 30.105 23.6003 29.9637C26.4975 28.9037 28.8295 26.6425 29.8895 23.6745C31.9389 18.2332 29.1122 12.0854 23.6003 10.1068C23.3883 9.96541 23.1763 9.68286 23.1763 9.40014V8.41089C23.1763 8.26944 23.1763 8.19889 23.247 8.12817Z" fill="white"/>
</svg>
